assets/img/braze_icons/clock-fast-forward.svg

<svg fill="none" height="24" viewBox="0 0 24 24" width="24" xmlns="http://www.w3.org/2000/svg"><g fill="#801ed7"><path d="m12 4c-4.41828 0-8 3.58172-8 8 0 4.4183 3.58172 8 8 8 2.5127 0 4.7544-1.1573 6.2226-2.9717.3474-.4293.9771-.4957 1.4064-.1483.4294.3474.4958.9771.1484 1.4064-1.8317 2.2635-4.6356 3.7136-7.7774 3.7136-5.52285 0-10-4.4772-10-10 0-5.52285 4.47715-10 10-10 5.1343 0 9.3648 3.86933 9.9347 8.851l.058-.058c.3905-.3906 1.0237-.3907 1.4143-.0002.3905.3905.3906 1.0236.0002 1.4142l-1.9994 2c-.1876.1876-.4419.293-.7071.293s-.5196-.1053-.7072-.2928l-2.0006-2c-.3905-.3905-.3906-1.0236-.0002-1.4142.3905-.3906 1.0237-.3907 1.4143-.0002l.5678.5677c-.3258-4.11929-3.7718-7.3605-7.9748-7.3605z"/><path d="m13 7c0-.55228-.4477-1-1-1s-1 .44772-1 1v5c0 .3344.1671.6466.4453.8321l3 2c.4595.3063 1.0804.1821 1.3868-.2774.3063-.4595.1821-1.0804-.2774-1.3868l-2.5547-1.7031z"/></g></svg>

<svg width="24" height="24" viewBox="0 0 24 24" fill="none" xmlns="http://www.w3.org/2000/svg">
<path d="M12 4C7.58172 4 4 7.58172 4 12C4 16.4183 7.58172 20 12 20C14.5127 20 16.7544 18.8427 18.2226 17.0283C18.57 16.599 19.1997 16.5326 19.629 16.88C20.0584 17.2274 20.1248 17.8571 19.7774 18.2864C17.9457 20.5499 15.1418 22 12 22C6.47715 22 2 17.5228 2 12C2 6.47715 6.47715 2 12 2C17.1343 2 21.3648 5.86933 21.9347 10.851L21.9927 10.793C22.3832 10.4024 23.0164 10.4023 23.407 10.7928C23.7975 11.1833 23.7976 11.8164 23.4072 12.207L21.4078 14.207C21.2202 14.3946 20.9659 14.5 20.7007 14.5C20.4355 14.5 20.1811 14.3947 19.9935 14.2072L17.9929 12.2072C17.6024 11.8167 17.6023 11.1836 17.9927 10.793C18.3832 10.4024 19.0164 10.4023 19.407 10.7928L19.9748 11.3605C19.649 7.24121 16.203 4 12 4Z" fill="#801ED7"/>
<path d="M13 7C13 6.44772 12.5523 6 12 6C11.4477 6 11 6.44772 11 7V12C11 12.3344 11.1671 12.6466 11.4453 12.8321L14.4453 14.8321C14.9048 15.1384 15.5257 15.0142 15.8321 14.5547C16.1384 14.0952 16.0142 13.4743 15.5547 13.1679L13 11.4648V7Z" fill="#801ED7"/>
</svg>
